**kern	**kern	**dynam
*part1	*part1	*part1
*staff2	*staff1	*
*I"Piano	*	*
*clefF4	*clefG2	*
*k[b-]	*k[b-]	*
=1	=1	=1
8AAA-XL 8AA-X	8e-XL 8cc	.
8AA-J	8e-J 8cc	.
4AA-	4c 4e-	.
4AA-	4e- 4cc	.
=	=	=
8AAA-XL 8AA-X	8fL 8dd-X	.
8AA-J	8fJ 8dd-	.
4AA-	4d-X 4f	.
4AA-	4g 4dd-	.
=	=	=
8AAA-XL 8AA-X	8a-XL 8cc	.
8AA-J	8a-J 8cc	.
4AA-	4c 4e-X	.
4AA-	4a- 4cc	.
=	=	=
!	!	!LO:DY:a
8AAA-XL 8AA-X	8e-XL 8cc	<
8AA-J	8e-J 8cc	.
4AA-	4c 4e-	.
4AA-	4e- 4cc	.
=	=	=
8AAAnL 8AAn	8e-XL 8cc	.
8AAJ	8e-J 8cc	.
4AA	4c 4e-	.
4AA	4e- 4cc	.
=	=	=
!	!	!LO:DY:a
8BBB-L 8BB-	8e-XL 8cc	>
8BB-J	8e-J 8cc	]
4BB-	4d 4b-	.
4CC 4C	4B- 4en 4g	]]
=	=	=
!	!	!LO:DY:a
8FFL 8F	8AL 8f	p
8FJ	8AJ 8f	.
4F	4A 4f	.
!	!	!LO:DY:a
4F	4A 4f	<
=	=	=
*-	*-	*-
!!!system-decoration: {(s1,s2)}
